X: 1
T: Fergus, The
M: 4/4
L: 1/8
R: reel
K: Gmaj
|:fd (3ded ed^cA|BGEF G2 AG|FA (3ABA GA (3BAG|Adef gbag|
fd (3ded ed^cA|BGEF G2 AG|FA (3ABA GA (3BAG|A2 ag fd d2:||
|:fd (3ded fdaf|ge (3ege gebe|fdAF G2AG|FAef gbag|
fd (3ded fdaf|ge (3efe gebe|fdAF G2 AG|FAag fd d2:||
